X:1
T: Jennie Pippin
C:
R:Reel
Q: 232
K:D
M:4/4
L:1/8
|:B|BA DA dA FA|BA DA de fd|BA DA dA FA|dc df e2 dB|
BA DA dA FA|BA DA de fd|BA DA dA FA|db af e2 dd|
df af bg af|df af ((3gag) fe|df af bg af|dB Af e2 dd|
df af bg af|bg af g2 fg|ag fe dB AB|db af e2 d:|
